X: 43522
T: Yn Bollan Bane
R: jig
M: 6/8
K: Dmajor
DDD D2D|D2D D2D|D2A B2A|d2e f2e|d2c d3|
d2e f2e|d2c d2A|A2B A2G|F2E DDD|
D2D DDD|D2D D2A|B2A GFE|D2D D3||
M:2/4
d>d dB|cd ec|dc BA|d2 d2|d>d dB|cd ec|dc BA|d2 d2|
DD FD|FD FD|FD FA|d2 d2|DD FD|FD FD|FD FA|d2 d2|
f>f fe|fg fe|fe fd|cA Bc|d2 d2||

